_site/images/features/legal-options.svg

<svg height="40" viewBox="0 0 40 40" width="40" xmlns="http://www.w3.org/2000/svg"><g fill="none" fill-rule="evenodd"><rect fill="#3377c6" height="40" rx="7" width="40"/><path d="m25.4975467 10.4-2.70768-8.8h2.9168v-1.6c-1.0191467 0-23.0311467 0-24.1066667 0v1.6h2.9168l-2.70773333 8.8h-1.80906667v.8c0 3.08784 2.51216 5.6 5.6 5.6s5.6-2.51216 5.6-5.6v-.8h-1.80912l-2.70768-8.8h6.1701333v17.6h-3.99999997v3.2h-1.6v1.6h12.79999997v-1.6h-1.6v-3.2h-4v-17.6h6.1701334l-2.7077334 8.8h-1.8090666v.8c0 3.08784 2.51216 5.6 5.6 5.6s5.6-2.51216 5.6-5.6v-.8zm-19.8975467 4.8c-1.93168 0-3.54789333-1.3765333-3.91962667-3.2h7.83925334c-.37173334 1.8234667-1.98794667 3.2-3.91962667 3.2zm-2.1168-4.8 2.1168-6.87968 2.1168 6.87968zm13.3701333 12h-6.4v-1.6h6.4zm4.8533334-18.87968 2.1168 6.87968h-4.2336zm0 11.67968c-1.93168 0-3.5478934-1.3765333-3.9196267-3.2h7.8392533c-.3717333 1.8234667-1.9879466 3.2-3.9196266 3.2z" fill="#fafafa" fill-rule="nonzero" transform="translate(7 8)"/></g></svg>

<?xml version="1.0" encoding="UTF-8"?>
<svg width="40px" height="40px" viewBox="0 0 40 40" version="1.1" xmlns="http://www.w3.org/2000/svg" xmlns:xlink="http://www.w3.org/1999/xlink">
    <!-- Generator: Sketch 52.6 (67491) - http://www.bohemiancoding.com/sketch -->
    <title>Group 58</title>
    <desc>Created with Sketch.</desc>
    <g id="Website" stroke="none" stroke-width="1" fill="none" fill-rule="evenodd">
        <g id="6--Pricing" transform="translate(-1024.000000, -1726.000000)">
            <g id="Group-58" transform="translate(1024.000000, 1726.000000)">
                <rect id="Rectangle" fill="#3377C6" x="0" y="0" width="40" height="40" rx="7"></rect>
                <g id="legal" transform="translate(7.000000, 8.000000)" fill="#FAFAFA" fill-rule="nonzero">
                    <path d="M25.4975467,10.4 L22.7898667,1.6 L25.7066667,1.6 L25.7066667,0 C24.68752,0 2.67552,0 1.6,0 L1.6,1.6 L4.5168,1.6 L1.80906667,10.4 L0,10.4 L0,11.2 C0,14.28784 2.51216,16.8 5.6,16.8 C8.68784,16.8 11.2,14.28784 11.2,11.2 L11.2,10.4 L9.39088,10.4 L6.6832,1.6 L12.8533333,1.6 L12.8533333,19.2 L8.85333333,19.2 L8.85333333,22.4 L7.25333333,22.4 L7.25333333,24 L20.0533333,24 L20.0533333,22.4 L18.4533333,22.4 L18.4533333,19.2 L14.4533333,19.2 L14.4533333,1.6 L20.6234667,1.6 L17.9157333,10.4 L16.1066667,10.4 L16.1066667,11.2 C16.1066667,14.28784 18.6188267,16.8 21.7066667,16.8 C24.7945067,16.8 27.3066667,14.28784 27.3066667,11.2 L27.3066667,10.4 L25.4975467,10.4 Z M5.6,15.2 C3.66832,15.2 2.05210667,13.8234667 1.68037333,12 L9.51962667,12 C9.14789333,13.8234667 7.53168,15.2 5.6,15.2 Z M3.4832,10.4 L5.6,3.52032 L7.7168,10.4 L3.4832,10.4 Z M16.8533333,22.4 L10.4533333,22.4 L10.4533333,20.8 L16.8533333,20.8 L16.8533333,22.4 Z M21.7066667,3.52032 L23.8234667,10.4 L19.5898667,10.4 L21.7066667,3.52032 Z M21.7066667,15.2 C19.7749867,15.2 18.1587733,13.8234667 17.78704,12 L25.6262933,12 C25.25456,13.8234667 23.6383467,15.2 21.7066667,15.2 Z" id="Shape"></path>
                </g>
            </g>
        </g>
    </g>
</svg>
